X: 2
T: Twilight in Portroe
T: the Dawn
C: Sean Ryan
D: De Dannan: Mist Covered Mountain.
Z: 2009 John Chambers <jc:trillian.mit.edu>
S: printed MS from Debbie Knight
R: reel
M: C|
L: 1/8
K: A
E \
| "A"A,2CE "D"DEFD \
| "E7"E2GB "A"ABcA \
| "D"df~f2 "A/c#"edcA \
| "Bm"BAcA "E7"BAFE \
| "A"A,2CE "D"DEFD |
| "E7"E2GB "A"ABcA \
| "D"df~f2 "A"edcA \
| "A7"B2AB "A"cAA :: B \
| "A"c2ec "(D)"fc"A"ec \
| "A"ABcA "E7"BAF[DA] |
| "A"~E2EF ABcA \
| "D"defg "E7"aefe \
| "A"ce~e2 "(D)"fc"A"ec \
| "A"ABcA "E7"BAF[DA] \
| "A"~E2EF ABcA \
| "D"df"E"ed "A"cAA :|

%%sep 1 1 500
